icons/svg/mail-ru.svg

﻿<?xml version="1.0" encoding="utf-8"?>
<!DOCTYPE svg PUBLIC "-//W3C//DTD SVG 1.1//EN" "http://www.w3.org/Graphics/SVG/1.1/DTD/svg11.dtd">
<svg xmlns="http://www.w3.org/2000/svg" xmlns:xlink="http://www.w3.org/1999/xlink" version="1.1" baseProfile="full" width="24" height="24" viewBox="0 0 24.00 24.00" enable-background="new 0 0 24.00 24.00" xml:space="preserve">
	<path fill="#000000" fill-opacity="1" fill-rule="evenodd" stroke-linejoin="round" d="M 15.4548,11.912C 15.341,9.70032 13.6996,8.37041 11.7173,8.37041L 11.6426,8.37041C 9.35497,8.37041 8.08615,10.1695 8.08615,12.2128C 8.08615,14.5012 9.62116,15.9463 11.6336,15.9463C 13.8776,15.9463 15.3532,14.3028 15.4599,12.3586M 11.6538,6.39212C 13.1825,6.39212 14.6194,7.06746 15.6748,8.12527L 15.6748,8.12937C 15.6748,7.62139 16.0163,7.23868 16.4912,7.23868L 16.6111,7.23789C 17.3534,7.23789 17.5056,7.94046 17.5056,8.16275L 17.5095,16.0598C 17.4571,16.5765 18.0429,16.8432 18.3678,16.5121C 19.6359,15.2089 21.1527,9.81301 17.5796,6.68653C 14.2493,3.77155 9.78095,4.2521 7.40463,5.89002C 4.87843,7.63243 3.26193,11.4882 4.83222,15.1098C 6.54382,19.0608 11.442,20.2385 14.3531,19.0638C 15.8273,18.4686 16.5081,20.4615 14.9771,21.1125C 12.6637,22.0984 6.22514,21.9991 3.21753,16.7888C 1.18544,13.2706 1.29363,7.08028 6.68321,3.8732C 10.8062,1.42002 16.2419,2.09949 19.5196,5.52269C 22.9459,9.10121 22.7462,15.8021 19.4041,18.4088C 17.8899,19.5918 15.641,18.4398 15.6554,16.7149L 15.6399,16.1509C 14.5854,17.1972 13.1825,17.8076 11.6538,17.8076C 8.63353,17.8076 5.97604,15.1498 5.97604,12.1307C 5.97604,9.08015 8.63353,6.39212 11.6538,6.39212 Z "/>
</svg>

<svg xmlns="http://www.w3.org/2000/svg" version="1.1" baseProfile="full" width="24" height="24" viewBox="0 0 24.00 24.00" xml:space="preserve"><path fill="#000" fill-opacity="1" fill-rule="evenodd" stroke-linejoin="round" d="M15.455 11.912C15.34 9.7 13.7 8.37 11.717 8.37h-.074c-2.288 0-3.557 1.8-3.557 3.843 0 2.288 1.535 3.733 3.548 3.733 2.244 0 3.72-1.643 3.826-3.587M11.654 6.39c1.528 0 2.965.675 4.02 1.733v.004c0-.51.342-.89.817-.89l.12-.002c.743 0 .896.702.896.925l.003 7.897c-.053.517.533.783.858.452 1.268-1.303 2.785-6.7-.788-9.825-3.33-2.915-7.8-2.435-10.175-.797-2.527 1.742-4.143 5.598-2.573 9.22 1.712 3.95 6.61 5.128 9.52 3.954 1.475-.595 2.156 1.398.625 2.05-2.313.984-8.752.885-11.76-4.325-2.032-3.52-1.923-9.71 3.466-12.917 4.123-2.453 9.56-1.774 12.837 1.65 3.426 3.578 3.226 10.28-.116 12.886-1.514 1.182-3.763.03-3.75-1.695l-.014-.564c-1.055 1.047-2.458 1.658-3.986 1.658-3.02 0-5.678-2.658-5.678-5.677 0-3.05 2.658-5.738 5.678-5.738z"/></svg>
